Numix-Light/24x24/status/gpm-keyboard-060.svg

<?xml version="1.0" encoding="UTF-8" standalone="no"?>
<svg
   xmlns:dc="http://purl.org/dc/elements/1.1/"
   xmlns:cc="http://creativecommons.org/ns#"
   xmlns:rdf="http://www.w3.org/1999/02/22-rdf-syntax-ns#"
   xmlns:svg="http://www.w3.org/2000/svg"
   xmlns="http://www.w3.org/2000/svg"
   xmlns:sodipodi="http://sodipodi.sourceforge.net/DTD/sodipodi-0.dtd"
   xmlns:inkscape="http://www.inkscape.org/namespaces/inkscape"
   width="24"
   height="24"
   viewBox="0 0 24 24"
   id="svg3003"
   version="1.1"
   inkscape:version="0.48.5 r10040"
   sodipodi:docname="gpm-keyboard-060.svg">
  <metadata
     id="metadata3027">
    <rdf:RDF>
      <cc:Work
         rdf:about="">
        <dc:format>image/svg+xml</dc:format>
        <dc:type
           rdf:resource="http://purl.org/dc/dcmitype/StillImage" />
      </cc:Work>
    </rdf:RDF>
  </metadata>
  <defs
     id="defs3025" />
  <sodipodi:namedview
     pagecolor="#ffffff"
     bordercolor="#666666"
     borderopacity="1"
     objecttolerance="10"
     gridtolerance="10"
     guidetolerance="10"
     inkscape:pageopacity="0"
     inkscape:pageshadow="2"
     inkscape:window-width="1280"
     inkscape:window-height="998"
     id="namedview3023"
     showgrid="false"
     inkscape:zoom="19.666667"
     inkscape:cx="0.18295347"
     inkscape:cy="5.3069795"
     inkscape:window-x="0"
     inkscape:window-y="0"
     inkscape:window-maximized="1"
     inkscape:current-layer="svg3003" />
  <path
     style="font-size:medium;font-style:normal;font-variant:normal;font-weight:normal;font-stretch:normal;text-indent:0;text-align:start;text-decoration:none;line-height:normal;letter-spacing:normal;word-spacing:normal;text-transform:none;direction:ltr;block-progression:tb;writing-mode:lr-tb;text-anchor:start;baseline-shift:baseline;color:#000000;fill:#353535;fill-opacity:1;stroke:none;stroke-width:1.09090996000000007;marker:none;visibility:visible;display:inline;overflow:visible;enable-background:accumulate;font-family:Sans;-inkscape-font-specification:Sans"
     d="m 17.15625,2.1875 c -0.886837,-0.09112 -1.810324,0.4868746 -1.875,1.46875 l 0,0.03125 0,0.03125 c 0,0.2195296 0.0011,0.4348491 0,0.65625 l -0.5625,0 c -0.896378,0 -1.625,0.7286217 -1.625,1.625 l 0,13.09375 c 0,0.896378 0.726275,1.625 1.625,1.625 l 5.46875,0 c 0.896723,0 1.625,-0.726276 1.625,-1.625 L 21.8125,6 c 0,-0.8987242 -0.730639,-1.625 -1.625,-1.625 l -0.5625,0 c 0.0051,-0.1548124 0.03706,-0.2777341 0.03125,-0.46875 -0.01044,-0.3434523 -0.08379,-0.7624737 -0.375,-1.125 C 18.965852,2.3765901 18.502941,2.2249867 18.125,2.1875 c -0.353558,-0.035068 -0.678283,0.00496 -0.90625,0 -0.01572,-3.42e-4 -0.04761,6.997e-4 -0.0625,0 z m -0.09375,1.09375 0.03125,0 0.03125,0 c 0.351166,0.016498 0.652355,-0.022083 0.875,0 0.222645,0.022083 0.307584,0.06091 0.40625,0.1875 0.0916,0.1140367 0.149115,0.2340767 0.15625,0.46875 0.0034,0.113156 0.0051,0.2943205 0,0.4375 l -2.1875,0 c 0.0011,-0.2097656 -1.31e-4,-0.4115493 0,-0.625 0.01974,-0.2996776 0.366263,-0.5137642 0.6875,-0.46875 z m -2.34375,2.1875 5.46875,0 c 0.308765,0 0.53125,0.2190358 0.53125,0.53125 l 0,13.09375 c 0,0.312214 -0.224847,0.53125 -0.53125,0.53125 l -5.46875,0 c -0.312213,0 -0.53125,-0.21669 -0.53125,-0.53125 L 14.1875,6 c 0,-0.3145601 0.21669,-0.53125 0.53125,-0.53125 z"
     id="path3015"
     inkscape:connector-curvature="0" />
  <path
     style="fill:#353535;fill-rule:evenodd;fill-opacity:1"
     inkscape:connector-curvature="0"
     id="path3019"
     d="m 3.273438,4.363281 c -0.605469,0 -1.089844,0.488281 -1.089844,1.089844 l 0,14.183594 c 0,0.605469 0.484375,1.089843 1.089844,1.089843 l 5.453124,0 c 0.605469,0 1.089844,-0.484374 1.089844,-1.089843 l 0,-14.183594 c 0,-0.601563 -0.484375,-1.089844 -1.089844,-1.089844 z m 0,3.273438 1.089843,0 0,1.089843 -1.089843,0 z m 2.179687,0 1.09375,0 0,1.089843 -1.09375,0 z m 2.183594,1.089843 1.089843,0 0,7.636719 -1.089843,0 z m -4.363281,1.089844 1.089843,0 0,1.09375 -1.089843,0 z m 2.179687,0 1.09375,0 0,1.09375 -1.09375,0 z M 3.273438,12 l 1.089843,0 0,1.089844 -1.089843,0 z m 2.179687,0 1.09375,0 0,1.089844 -1.09375,0 z m -2.179687,2.183594 1.089843,0 0,1.089844 -1.089843,0 z m 2.179687,0 1.09375,0 0,1.089844 -1.09375,0 z m -2.179687,2.179687 1.089843,0 0,1.089844 -1.089843,0 z m 2.179687,0 1.09375,0 0,1.089844 -1.09375,0 z" />
  <path
     style="fill:#353535;fill-rule:evenodd;fill-opacity:1"
     inkscape:connector-curvature="0"
     id="path3021"
     d="m 15.816406,10.910156 3.273438,0 c 0.300781,0 0.546875,0.242188 0.546875,0.542969 l 0,6.546875 c 0,0.300781 -0.246094,0.546875 -0.546875,0.546875 l -3.273438,0 c -0.300781,0 -0.542968,-0.246094 -0.542968,-0.546875 l 0,-6.546875 c 0,-0.300781 0.242187,-0.542969 0.542968,-0.542969 z" />
</svg>

<svg width="24" xmlns="http://www.w3.org/2000/svg" height="24" viewBox="0 0 24 24" xmlns:xlink="http://www.w3.org/1999/xlink">
<path style="fill:#000;fill-rule:evenodd;fill-opacity:.302" d="M 3.273438 5.453125 C 2.667969 5.453125 2.183594 5.941406 2.183594 6.546875 L 2.183594 20.726562 C 2.183594 21.332031 2.667969 21.816406 3.273438 21.816406 L 8.726562 21.816406 C 9.332031 21.816406 9.816406 21.332031 9.816406 20.726562 L 9.816406 6.546875 C 9.816406 5.941406 9.332031 5.453125 8.726562 5.453125 Z M 3.273438 8.726562 L 4.363281 8.726562 L 4.363281 9.816406 L 3.273438 9.816406 Z M 5.453125 8.726562 L 6.546875 8.726562 L 6.546875 9.816406 L 5.453125 9.816406 Z M 7.636719 9.816406 L 8.726562 9.816406 L 8.726562 17.453125 L 7.636719 17.453125 Z M 3.273438 10.910156 L 4.363281 10.910156 L 4.363281 12 L 3.273438 12 Z M 5.453125 10.910156 L 6.546875 10.910156 L 6.546875 12 L 5.453125 12 Z M 3.273438 13.089844 L 4.363281 13.089844 L 4.363281 14.183594 L 3.273438 14.183594 Z M 5.453125 13.089844 L 6.546875 13.089844 L 6.546875 14.183594 L 5.453125 14.183594 Z M 3.273438 15.273438 L 4.363281 15.273438 L 4.363281 16.363281 L 3.273438 16.363281 Z M 5.453125 15.273438 L 6.546875 15.273438 L 6.546875 16.363281 L 5.453125 16.363281 Z M 3.273438 17.453125 L 4.363281 17.453125 L 4.363281 18.546875 L 3.273438 18.546875 Z M 5.453125 17.453125 L 6.546875 17.453125 L 6.546875 18.546875 L 5.453125 18.546875 Z M 15.816406 17.453125 C 15.515625 17.453125 15.273438 17.699219 15.273438 18 L 15.273438 19.089844 C 15.273438 19.394531 15.515625 19.636719 15.816406 19.636719 L 19.089844 19.636719 C 19.394531 19.636719 19.636719 19.394531 19.636719 19.089844 L 19.636719 18 C 19.636719 17.699219 19.394531 17.453125 19.089844 17.453125 Z "/>
<g style="stroke-linecap:round;fill:none">
<g style="stroke-opacity:.302">
<path style="stroke:#000" d="M 12.500326 12.501628 L 12.500326 0.499023 C 12.500326 -0.0524089 12.944336 -0.5 13.499349 -0.5 L 18.501628 -0.5 C 19.05306 -0.5 19.500651 -0.0524089 19.500651 0.499023 L 19.500651 12.501628 C 19.500651 13.05306 19.05306 13.500651 18.501628 13.500651 L 13.499349 13.500651 C 12.944336 13.500651 12.500326 13.05306 12.500326 12.501628 Z M 14.501953 -0.618164 C 14.501953 -0.947591 14.505534 -1.273438 14.505534 -1.602865 C 14.544922 -2.200846 15.153646 -2.580404 15.71582 -2.498047 C 16.249349 -2.476562 16.89388 -2.623372 17.273438 -2.136393 C 17.624349 -1.699544 17.463216 -1.115885 17.499023 -0.60026 " transform="matrix(1.09091 0 0 1.09091 0 6.54545)"/>
<path style="stroke:#fff;stroke-width:.5" d="M -11.499023 13.248698 L 0.5 13.248698 C 0.639648 13.248698 0.750651 13.363281 0.750651 13.499349 L 0.750651 18.501628 C 0.750651 18.637695 0.639648 18.748698 0.5 18.748698 L -11.499023 18.748698 C -11.638672 18.748698 -11.749674 18.637695 -11.749674 18.501628 L -11.749674 13.499349 C -11.749674 13.363281 -11.638672 13.248698 -11.499023 13.248698 Z " transform="matrix(0 -1.09091 1.09091 0 0 6.54545)"/>
</g>
<path style="stroke:#353535" d="M 12.500326 11.499023 L 12.500326 -0.5 C 12.500326 -1.055013 12.944336 -1.499023 13.499349 -1.499023 L 18.501628 -1.499023 C 19.05306 -1.499023 19.500651 -1.055013 19.500651 -0.5 L 19.500651 11.499023 C 19.500651 12.054036 19.05306 12.501628 18.501628 12.501628 L 13.499349 12.501628 C 12.944336 12.501628 12.500326 12.054036 12.500326 11.499023 Z M 14.501953 -1.617188 C 14.501953 -1.946615 14.505534 -2.272461 14.505534 -2.601888 C 14.544922 -3.19987 15.153646 -3.579427 15.71582 -3.500651 C 16.249349 -3.475586 16.89388 -3.622396 17.273438 -3.135417 C 17.624349 -2.698568 17.463216 -2.114909 17.499023 -1.599284 " transform="matrix(1.09091 0 0 1.09091 0 6.54545)"/>
</g>
<g style="fill-rule:evenodd;fill:#353535">
<path d="M 3.273438 4.363281 C 2.667969 4.363281 2.183594 4.851562 2.183594 5.453125 L 2.183594 19.636719 C 2.183594 20.242188 2.667969 20.726562 3.273438 20.726562 L 8.726562 20.726562 C 9.332031 20.726562 9.816406 20.242188 9.816406 19.636719 L 9.816406 5.453125 C 9.816406 4.851562 9.332031 4.363281 8.726562 4.363281 Z M 3.273438 7.636719 L 4.363281 7.636719 L 4.363281 8.726562 L 3.273438 8.726562 Z M 5.453125 7.636719 L 6.546875 7.636719 L 6.546875 8.726562 L 5.453125 8.726562 Z M 7.636719 8.726562 L 8.726562 8.726562 L 8.726562 16.363281 L 7.636719 16.363281 Z M 3.273438 9.816406 L 4.363281 9.816406 L 4.363281 10.910156 L 3.273438 10.910156 Z M 5.453125 9.816406 L 6.546875 9.816406 L 6.546875 10.910156 L 5.453125 10.910156 Z M 3.273438 12 L 4.363281 12 L 4.363281 13.089844 L 3.273438 13.089844 Z M 5.453125 12 L 6.546875 12 L 6.546875 13.089844 L 5.453125 13.089844 Z M 3.273438 14.183594 L 4.363281 14.183594 L 4.363281 15.273438 L 3.273438 15.273438 Z M 5.453125 14.183594 L 6.546875 14.183594 L 6.546875 15.273438 L 5.453125 15.273438 Z M 3.273438 16.363281 L 4.363281 16.363281 L 4.363281 17.453125 L 3.273438 17.453125 Z M 5.453125 16.363281 L 6.546875 16.363281 L 6.546875 17.453125 L 5.453125 17.453125 Z "/>
<path d="M 15.816406 10.910156 L 19.089844 10.910156 C 19.390625 10.910156 19.636719 11.152344 19.636719 11.453125 L 19.636719 18 C 19.636719 18.300781 19.390625 18.546875 19.089844 18.546875 L 15.816406 18.546875 C 15.515625 18.546875 15.273438 18.300781 15.273438 18 L 15.273438 11.453125 C 15.273438 11.152344 15.515625 10.910156 15.816406 10.910156 Z "/>
</g>
</svg>
